X: 39056
T: Swedish
R: waltz
M: 3/4
K: Cmajor
fg|:a2fd3|A2F2D2|GF GA Bc|B4 cB|
AB cd ef|e2 B2 c2|dc de fg|a3 g fg|
a2fd3|A2F2D2|GF GA Bc|B4 cB|
AB cd ef|g2B2c2|d2 dc de|d4:|
fg|:ag fe dc|dc BA Bc|d2F3G|A4 fg|
ag fe dc|d2 c2 d2|e3 ^d ef|e4 fg|
a2 f2 d2|g3 d gd|f3 e d2|B3 c de|
fA fa fd|Ac eg ec|d2 dc de|d4:|

